Numix-GalliumOS/16/mimetypes/application-x-subrip.svg

<?xml version="1.0" encoding="UTF-8" standalone="no"?>
<svg
   xmlns:dc="http://purl.org/dc/elements/1.1/"
   xmlns:cc="http://creativecommons.org/ns#"
   xmlns:rdf="http://www.w3.org/1999/02/22-rdf-syntax-ns#"
   xmlns:svg="http://www.w3.org/2000/svg"
   xmlns="http://www.w3.org/2000/svg"
   xmlns:sodipodi="http://sodipodi.sourceforge.net/DTD/sodipodi-0.dtd"
   xmlns:inkscape="http://www.inkscape.org/namespaces/inkscape"
   width="16"
   viewBox="0 0 16 16"
   height="16"
   id="svg2"
   version="1.1"
   inkscape:version="0.91 r13725"
   sodipodi:docname="application-x-subrip.svg">
  <metadata
     id="metadata14">
    <rdf:RDF>
      <cc:Work
         rdf:about="">
        <dc:format>image/svg+xml</dc:format>
        <dc:type
           rdf:resource="http://purl.org/dc/dcmitype/StillImage" />
        <dc:title></dc:title>
      </cc:Work>
    </rdf:RDF>
  </metadata>
  <defs
     id="defs12">
    <clipPath
       id="clipPath-156864852">
      <g
         transform="translate(0,-1004.3622)"
         id="g12">
        <path
           style="fill:#1890d0"
           inkscape:connector-curvature="0"
           d="m -24,13 c 0,1.105 -0.672,2 -1.5,2 -0.828,0 -1.5,-0.895 -1.5,-2 0,-1.105 0.672,-2 1.5,-2 0.828,0 1.5,0.895 1.5,2 z"
           transform="matrix(15.333333,0,0,11.5,414.99999,878.8622)"
           id="path14" />
      </g>
    </clipPath>
    <clipPath
       id="clipPath-165128749">
      <g
         transform="translate(0,-1004.3622)"
         id="g17">
        <path
           style="fill:#1890d0"
           inkscape:connector-curvature="0"
           d="m -24,13 c 0,1.105 -0.672,2 -1.5,2 -0.828,0 -1.5,-0.895 -1.5,-2 0,-1.105 0.672,-2 1.5,-2 0.828,0 1.5,0.895 1.5,2 z"
           transform="matrix(15.333333,0,0,11.5,414.99999,878.8622)"
           id="path19" />
      </g>
    </clipPath>
  </defs>
  <sodipodi:namedview
     pagecolor="#ffffff"
     bordercolor="#666666"
     borderopacity="1"
     objecttolerance="10"
     gridtolerance="10"
     guidetolerance="10"
     inkscape:pageopacity="0"
     inkscape:pageshadow="2"
     inkscape:window-width="1920"
     inkscape:window-height="1016"
     id="namedview10"
     showgrid="true"
     inkscape:zoom="32"
     inkscape:cx="7.1048387"
     inkscape:cy="6.6006295"
     inkscape:window-x="0"
     inkscape:window-y="27"
     inkscape:window-maximized="1"
     inkscape:current-layer="svg2">
    <inkscape:grid
       type="xygrid"
       id="grid4146" />
  </sodipodi:namedview>
  <path
     style="fill:#376a94;fill-opacity:1"
     d="M 2.6666666,0 C 2.3238097,0 2,0.337888 2,0.695652 L 2,15.304348 C 2,15.642236 2.3428574,16 2.6666666,16 L 13.333334,16 C 13.657143,16 14,15.642236 14,15.304348 L 14,4.521739 9.5,0 Z"
     id="path4"
     inkscape:connector-curvature="0"
     sodipodi:nodetypes="ssssssccs" />
  <path
     style="fill:#ffffff;fill-opacity:0.39200003"
     d="m 9.5,0 4.496,4.5 -3.804307,0 C 9.8557274,4.5 9.5,4.143957 9.5,3.807692 L 9.5,0 Z"
     id="path8"
     inkscape:connector-curvature="0" />
  <g
     transform="matrix(0.24992093,0,0,0.2427961,2.0035962,3.0862207)"
     id="g49"
     style="fill:#ffffff">
    <g
       clip-path="url(#clipPath-165128749)"
       id="g51"
       style="fill:#ffffff">
      <!-- color: #474747 -->
      <g
         id="g53"
         style="fill:#ffffff">
        <path
           d="m 19.191685,12.000931 c -3.926,0 -7.202279,3.877819 -7.202278,7.803819 l 10e-7,3.90191 c 1e-6,3.926 4.07653,8.887683 8.00253,8.887683 l 8.002531,0 c 3.925956,0 8.00253,-4.961682 8.002531,-8.887683 l 0,-3.90191 c 0,-3.926 -3.276278,-7.803819 -7.202278,-7.803819"
           id="path55"
           inkscape:connector-curvature="0"
           style="fill:#ffffff;fill-opacity:1;fill-rule:nonzero;stroke:none"
           sodipodi:nodetypes="cssssssc" />
        <path
           style="fill:#ffffff;fill-opacity:1;fill-rule:nonzero;stroke:none"
           inkscape:connector-curvature="0"
           d="m 31.995735,28.47566 -12.003797,0 -4.001265,12.356047"
           id="path57"
           sodipodi:nodetypes="ccc" />
      </g>
    </g>
  </g>
  <path
     style="fill:#000000;fill-opacity:0.19599998"
     d="M 10.5,4.5 14,8 14,4.5 Z"
     id="path6-4"
     inkscape:connector-curvature="0"
     sodipodi:nodetypes="cccc" />
</svg>

<svg xmlns="http://www.w3.org/2000/svg" viewBox="0 0 16 16">
 <path d="m 2.667 0 c -0.343 0 -0.667 0.338 -0.667 0.696 l 0 14.609 c 0 0.338 0.343 0.696 0.667 0.696 l 10.667 0 c 0.324 0 0.667 -0.358 0.667 -0.696 l 0 -10.783 -4.5 -4.522" style="fill:#376a94;fill-opacity:1"/>
 <path d="m 9.5 0 4.496 4.5 -3.804 0 c -0.336 0 -0.692 -0.356 -0.692 -0.692 l 0 -3.808" style="fill:#fff;fill-opacity:0.392"/>
 <g transform="matrix(0.24992093,0,0,0.2427961,2.0035962,3.0862207)" style="fill:#fff">
  <!-- color: #474747 -->
  <g style="fill:#fff">
   <path d="m 19.19,12 c -3.926,0 -7.202,3.878 -7.202,7.804 l 0,3.902 c 0,3.926 4.077,8.888 8,8.888 l 8,0 c 3.926,0 8,-4.962 8,-8.888 l 0,-3.902 C 35.988,15.878 32.712,12 28.786,12" style="fill:#fff;fill-opacity:1;stroke:none;fill-rule:nonzero"/>
   <path d="m 31.996 28.476 -12 0 -4 12.356" style="fill:#fff;fill-opacity:1;stroke:none;fill-rule:nonzero"/>
  </g>
 </g>
 <path d="M 10.5,4.5 14,8 14,4.5 Z" style="fill:#000;fill-opacity:0.196"/>
</svg>
